build/images/SVG/new/square-10.svg

<svg xmlns="http://www.w3.org/2000/svg" width="64.764" height="80.5" viewBox="0 0 64.764 80.5"><path fill="none" d="M44.044 51.598c3.594 0 4.582-3.146 4.582-11.37s-.988-11.324-4.582-11.324c-3.597 0-4.584 3.101-4.584 11.324 0 8.222.988 11.37 4.584 11.37z"/><path fill="none" d="M44.044 23.87c7.504 0 11.053 5.168 11.053 16.357S51.548 56.63 44.044 56.63c-7.506 0-11.056-5.213-11.056-16.402s3.55-16.358 11.056-16.358zM9.667 29.397h.898c6.066 0 7.685-3.146 7.819-5.527h5.168v31.905H17.26V33.801H9.667v-4.404z"/><path d="M17.261 55.775h6.292V23.87h-5.168c-.135 2.382-1.752 5.527-7.819 5.527h-.899V33.8h7.594v21.975zm26.783.855c7.504 0 11.053-5.213 11.053-16.402S51.548 23.87 44.044 23.87c-7.506 0-11.056 5.168-11.056 16.357s3.55 16.403 11.056 16.403zm0-27.727c3.594 0 4.582 3.101 4.582 11.324s-.988 11.369-4.582 11.369c-3.597 0-4.584-3.146-4.584-11.369s.988-11.324 4.584-11.324z"/><path d="M62.989 0H1.774C.796 0 0 .793 0 1.769v76.963c0 .975.796 1.768 1.774 1.768h61.215c.979 0 1.774-.793 1.774-1.769l.001-76.963C64.764.793 63.967 0 62.989 0zm.274 78.731a.275.275 0 0 1-.274.269H1.774a.275.275 0 0 1-.274-.269V1.769c0-.146.125-.269.274-.269h61.215c.149 0 .275.123.275.269l-.001 76.962z"/></svg>

<?xml version="1.0" encoding="utf-8"?>
<!-- Generator: Adobe Illustrator 16.0.0, SVG Export Plug-In . SVG Version: 6.00 Build 0)  -->
<!DOCTYPE svg PUBLIC "-//W3C//DTD SVG 1.1//EN" "http://www.w3.org/Graphics/SVG/1.1/DTD/svg11.dtd">
<svg version="1.1" id="Layer_1" xmlns="http://www.w3.org/2000/svg" xmlns:xlink="http://www.w3.org/1999/xlink" x="0px" y="0px"
	 width="64.764px" height="80.5px" viewBox="0 0 64.764 80.5" enable-background="new 0 0 64.764 80.5" xml:space="preserve">
<g display="none">
	<g display="inline">
		<path fill="none" stroke="#000000" stroke-width="3" stroke-miterlimit="10" d="M63.263,78c0,0.55-0.45,1-1,1H2.5
			c-0.55,0-1-0.45-1-1V2.5c0-0.55,0.45-1,1-1h59.764c0.55,0,1,0.45,1,1L63.263,78L63.263,78z"/>
	</g>
	<text transform="matrix(1 0 0 1 19.8879 54.4277)" display="inline" font-family="'HelveticaCE-Bold'" font-size="44.9367">0</text>
</g>
<g display="none">
	<g display="inline">
		<path fill="none" stroke="#000000" stroke-width="3" stroke-miterlimit="10" d="M63.263,78c0,0.55-0.45,1-1,1H2.5
			c-0.55,0-1-0.45-1-1V2.5c0-0.55,0.45-1,1-1h59.764c0.55,0,1,0.45,1,1L63.263,78L63.263,78z"/>
	</g>
	<text transform="matrix(1 0 0 1 19.8879 54.4277)" display="inline" font-family="'HelveticaCE-Bold'" font-size="44.9367">1</text>
</g>
<g display="none">
	<g display="inline">
		<path fill="none" stroke="#000000" stroke-width="3" stroke-miterlimit="10" d="M63.263,78c0,0.55-0.45,1-1,1H2.501
			c-0.55,0-1-0.45-1-1V2.5c0-0.55,0.45-1,1-1h59.763c0.55,0,1,0.45,1,1L63.263,78L63.263,78z"/>
	</g>
	<text transform="matrix(1 0 0 1 19.8899 54.4277)" display="inline" font-family="'HelveticaCE-Bold'" font-size="44.9367">2</text>
</g>
<g display="none">
	<g display="inline">
		<path fill="none" stroke="#000000" stroke-width="3" stroke-miterlimit="10" d="M63.263,78c0,0.55-0.45,1-1,1H2.5
			c-0.55,0-1-0.45-1-1V2.5c0-0.55,0.45-1,1-1h59.764c0.55,0,1,0.45,1,1L63.263,78L63.263,78z"/>
	</g>
	<text transform="matrix(1 0 0 1 19.8909 54.4277)" display="inline" font-family="'HelveticaCE-Bold'" font-size="44.9367">3</text>
</g>
<g display="none">
	<g display="inline">
		<path fill="none" stroke="#000000" stroke-width="3" stroke-miterlimit="10" d="M63.263,78c0,0.55-0.45,1-1,1H2.5
			c-0.55,0-1-0.45-1-1V2.5c0-0.55,0.45-1,1-1h59.764c0.55,0,1,0.45,1,1L63.263,78L63.263,78z"/>
	</g>
	<text transform="matrix(1 0 0 1 19.8909 54.4277)" display="inline" font-family="'HelveticaCE-Bold'" font-size="44.9367">4</text>
</g>
<g display="none">
	<g display="inline">
		<path fill="none" stroke="#000000" stroke-width="3" stroke-miterlimit="10" d="M63.263,78c0,0.55-0.45,1-1,1H2.5
			c-0.55,0-1-0.45-1-1V2.5c0-0.55,0.45-1,1-1h59.764c0.55,0,1,0.45,1,1L63.263,78L63.263,78z"/>
	</g>
	<text transform="matrix(1 0 0 1 19.8879 54.4277)" display="inline" font-family="'HelveticaCE-Bold'" font-size="44.9367">5</text>
</g>
<g display="none">
	<g display="inline">
		<path fill="none" stroke="#000000" stroke-width="3" stroke-miterlimit="10" d="M63.263,78c0,0.55-0.45,1-1,1H2.501
			c-0.55,0-1-0.45-1-1V2.5c0-0.55,0.45-1,1-1h59.763c0.55,0,1,0.45,1,1L63.263,78L63.263,78z"/>
	</g>
	<text transform="matrix(1 0 0 1 19.8875 54.4277)" display="inline" font-family="'HelveticaCE-Bold'" font-size="44.9367">6</text>
</g>
<g display="none">
	<g display="inline">
		<path fill="none" stroke="#000000" stroke-width="3" stroke-miterlimit="10" d="M63.263,78c0,0.55-0.45,1-1,1H2.501
			c-0.55,0-1-0.45-1-1V2.5c0-0.55,0.45-1,1-1h59.763c0.55,0,1,0.45,1,1L63.263,78L63.263,78z"/>
	</g>
	<text transform="matrix(1 0 0 1 19.8909 54.4277)" display="inline" font-family="'HelveticaCE-Bold'" font-size="44.9367">7</text>
</g>
<g display="none">
	<g display="inline">
		<path fill="none" stroke="#000000" stroke-width="3" stroke-miterlimit="10" d="M63.263,78c0,0.55-0.45,1-1,1H2.501
			c-0.55,0-1-0.45-1-1V2.5c0-0.55,0.45-1,1-1h59.763c0.55,0,1,0.45,1,1L63.263,78L63.263,78z"/>
	</g>
	<text transform="matrix(1 0 0 1 19.8899 54.4277)" display="inline" font-family="'HelveticaCE-Bold'" font-size="44.9367">8</text>
</g>
<g display="none">
	<g display="inline">
		<path fill="none" stroke="#000000" stroke-width="3" stroke-miterlimit="10" d="M63.263,78c0,0.55-0.45,1-1,1H2.501
			c-0.55,0-1-0.45-1-1V2.5c0-0.55,0.45-1,1-1h59.763c0.55,0,1,0.45,1,1L63.263,78L63.263,78z"/>
	</g>
	<text transform="matrix(1 0 0 1 19.886 54.4277)" display="inline" font-family="'HelveticaCE-Bold'" font-size="44.9367">9</text>
</g>
<g>
	<path fill="none" d="M44.044,51.598c3.594,0,4.582-3.146,4.582-11.37c0-8.224-0.988-11.324-4.582-11.324
		c-3.597,0-4.584,3.101-4.584,11.324C39.46,48.45,40.448,51.598,44.044,51.598z"/>
	<path fill="none" d="M44.044,23.87c7.504,0,11.053,5.168,11.053,16.357S51.548,56.63,44.044,56.63
		c-7.506,0-11.056-5.213-11.056-16.402S36.538,23.87,44.044,23.87z M9.667,29.397h0.898c6.066,0,7.685-3.146,7.819-5.527h5.168
		v31.905h-6.292V33.801H9.667V29.397z"/>
	<path d="M17.261,55.775h6.292V23.87h-5.168c-0.135,2.382-1.752,5.527-7.819,5.527H9.667V33.8h7.594V55.775z"/>
	<path d="M44.044,56.63c7.504,0,11.053-5.213,11.053-16.402S51.548,23.87,44.044,23.87c-7.506,0-11.056,5.168-11.056,16.357
		S36.538,56.63,44.044,56.63z M44.044,28.903c3.594,0,4.582,3.101,4.582,11.324s-0.988,11.369-4.582,11.369
		c-3.597,0-4.584-3.146-4.584-11.369S40.448,28.903,44.044,28.903z"/>
</g>
<g display="none">
	<g display="inline">
		<path fill="none" stroke="#000000" stroke-width="3" stroke-miterlimit="10" d="M63.263,78c0,0.55-0.45,1-1,1H2.501
			c-0.55,0-1-0.45-1-1V2.5c0-0.55,0.45-1,1-1h59.763c0.55,0,1,0.45,1,1L63.263,78L63.263,78z"/>
	</g>
	<text transform="matrix(1 0 0 1 7.3958 54.4277)" display="inline" font-family="'HelveticaCE-Bold'" font-size="44.9367">11</text>
</g>
<g display="none">
	<g display="inline">
		<path d="M32.382,27.557c-3.595,0-4.584,3.1-4.584,11.326c0,8.223,0.989,11.369,4.584,11.369c3.597,0,4.585-3.146,4.585-11.369
			C36.967,30.657,35.978,27.557,32.382,27.557z"/>
	</g>
	<g display="inline">
		<path d="M2.5,1.5c-0.55,0-1,0.45-1,1V78c0,0.55,0.45,1,1,1h59.764c0.55,0,1-0.45,1-1V2.5c0-0.55-0.45-1-1-1H2.5z M32.382,55.281
			c-7.505,0-11.055-5.213-11.055-16.399c0-11.191,3.55-16.36,11.055-16.36c7.506,0,11.056,5.169,11.056,16.36
			C43.437,50.068,39.887,55.281,32.382,55.281z"/>
	</g>
</g>
<path display="none" d="M61.233,1.5H3.53C2.414,1.5,1.5,2.414,1.5,3.53v73.441C1.5,78.086,2.414,79,3.53,79h57.704
	c1.116,0,2.029-0.914,2.029-2.029V3.53C63.263,2.414,62.35,1.5,61.233,1.5z M36.875,54.43h-6.291V32.453H22.99v-4.4h0.897
	c6.065,0,7.686-3.147,7.817-5.53h5.168L36.875,54.43L36.875,54.43z"/>
<path display="none" d="M61.233,1.5H3.531c-1.114,0-2.028,0.914-2.028,2.03v73.441C1.501,78.086,2.415,79,3.531,79h57.703
	c1.116,0,2.029-0.914,2.029-2.029V3.53C63.263,2.414,62.35,1.5,61.233,1.5z M42.854,54.43H21.059
	c0.227-3.729,0.494-7.639,7.415-12.673c5.752-4.178,8.043-5.795,8.043-9.391c0-2.113-1.349-4.539-4.403-4.539
	c-4.402,0-4.537,3.639-4.584,5.978H21.42c0-10.382,7.596-11.282,10.426-11.282c6.11,0,10.965,3.596,10.965,10.065
	c0,5.482-3.551,8.27-6.649,10.383c-4.225,2.965-6.427,4.403-7.146,5.887h13.841L42.854,54.43L42.854,54.43z"/>
<path display="none" d="M61.233,1.5H3.53C2.414,1.5,1.5,2.414,1.5,3.53v73.441C1.5,78.086,2.414,79,3.53,79h57.704
	c1.116,0,2.029-0.914,2.029-2.029V3.53C63.263,2.414,62.35,1.5,61.233,1.5z M32.204,55.281c-3.013,0-11.102-0.674-11.102-10.646
	h6.155l-0.044,0.043c0,1.709,0.449,5.573,4.675,5.573c2.516,0,4.718-1.708,4.718-5.261c0-4.355-4.225-4.538-7.146-4.538v-4.491
	h0.989c1.887,0,5.348-0.183,5.348-4.317c0-1.165-0.539-4.087-4-4.087c-4.313,0-4.313,4.087-4.313,5.213h-5.842
	c0-5.978,3.371-10.248,10.563-10.248c4.271,0,9.887,2.157,9.887,8.9c0,3.235-2.021,5.256-3.819,6.065v0.091
	c1.124,0.313,4.81,1.978,4.81,7.412C43.079,51.014,38.63,55.281,32.204,55.281z"/>
<g display="none">
	<path display="inline" d="M61.233,1.5H3.53C2.414,1.5,1.5,2.414,1.5,3.53v73.441C1.5,78.086,2.414,79,3.53,79h57.704
		c1.116,0,2.029-0.914,2.029-2.029V3.53C63.263,2.414,62.35,1.5,61.233,1.5z M43.529,47.374h-3.55v7.056h-6.291v-7.056H21.104
		v-5.438l11.729-19.414h7.146v19.953h3.55V47.374z"/>
	<path display="inline" d="M25.733,42.475h7.955c0-7.728,0.135-12.718,0.135-13.706h-0.091L25.733,42.475z"/>
</g>
<path display="none" d="M61.233,1.5H3.53C2.414,1.5,1.5,2.414,1.5,3.53v73.441C1.5,78.086,2.414,79,3.53,79h57.704
	c1.116,0,2.029-0.914,2.029-2.029V3.53C63.263,2.414,62.35,1.5,61.233,1.5z M31.483,55.281c-4.986,0-10.064-2.965-10.381-9.391
	h6.291c0.271,2.604,1.663,4.358,4.448,4.358c3.013,0,4.765-2.563,4.765-5.979c0-2.83-1.349-5.708-4.674-5.708
	c-0.854,0-3.012,0.047-4.225,2.292l-5.618-0.271l2.202-17.525h17.524v5.304H28.831l-1.123,6.921
	c1.168-0.809,2.604-1.752,5.706-1.752c4.271,0,9.663,2.965,9.663,10.286C43.077,48.182,40.875,55.281,31.483,55.281z"/>
<g display="none">
	<path display="inline" d="M61.233,1.5H3.531c-1.114,0-2.028,0.914-2.028,2.03v73.441C1.501,78.086,2.415,79,3.531,79h57.703
		c1.116,0,2.029-0.914,2.029-2.029V3.53C63.263,2.414,62.35,1.5,61.233,1.5z M32.83,55.281c-9.661,0-11.548-8.086-11.548-16.042
		c0-6.065,0.809-16.717,11.861-16.717c1.302,0,4.942,0.496,6.517,2.069c1.754,1.705,2.383,2.652,2.968,6.022H36.38
		c-0.178-1.8-1.348-3.057-3.687-3.057c-4.089,0-5.031,4.674-5.257,8.809l0.089,0.087c0.854-1.166,2.428-2.648,5.978-2.648
		c6.604,0,9.752,5.078,9.752,9.838C43.256,50.607,38.986,55.281,32.83,55.281z"/>
	<path display="inline" d="M32.382,38.835c-2.382,0-4.809,1.482-4.809,5.481c0,3.461,1.977,5.935,4.985,5.935
		c2.291,0,4.403-1.756,4.403-6.069C36.965,40.139,34.358,38.835,32.382,38.835z"/>
</g>
<path display="none" d="M61.233,1.5H3.531c-1.114,0-2.028,0.914-2.028,2.03v73.441C1.501,78.086,2.415,79,3.531,79h57.703
	c1.116,0,2.029-0.914,2.029-2.029V3.53C63.263,2.414,62.35,1.5,61.233,1.5z M43.618,27.917
	c-3.058,3.322-10.875,12.761-11.641,26.513h-6.472c0.675-12.766,8.674-22.922,11.369-25.796h-15.86l0.135-5.573H43.62L43.618,27.917
	L43.618,27.917z"/>
<g display="none">
	<path display="inline" d="M32.293,40.23c-2.292,0-4.494,1.483-4.494,4.943c0,3.054,1.752,5.078,4.628,5.078
		c3.28,0,4.539-2.834,4.539-5.034C36.967,42.969,35.799,40.23,32.293,40.23z"/>
	<path display="inline" d="M32.428,35.465c2.472,0,3.91-1.661,3.91-3.957c0-2.426-1.663-3.952-3.687-3.952
		c-2.833,0-4.313,1.617-4.313,3.952C28.339,33.4,29.732,35.465,32.428,35.465z"/>
	<path display="inline" d="M61.233,1.5H3.531c-1.114,0-2.028,0.914-2.028,2.03v73.441C1.501,78.086,2.415,79,3.531,79h57.703
		c1.116,0,2.029-0.914,2.029-2.029V3.53C63.263,2.414,62.35,1.5,61.233,1.5z M32.384,55.281c-8.224,0-11.056-5.348-11.056-9.703
		c0-1.622,0-5.843,4.854-8.091c-2.518-1.256-3.865-3.278-3.865-6.248c0-5.435,4.358-8.717,9.934-8.717
		c6.604,0,10.109,3.909,10.109,8.313c0,2.743-1.124,5.078-3.686,6.426c3.055,1.53,4.764,3.551,4.764,7.686
		C43.438,48.991,40.832,55.281,32.384,55.281z"/>
</g>
<g display="none">
	<path display="inline" d="M32.065,27.691c-1.617,0-4.539,0.809-4.539,5.392c0,4.808,2.337,5.843,4.721,5.843
		c2.198,0,4.628-1.574,4.628-5.348C36.874,29.939,35.3,27.691,32.065,27.691z"/>
	<path display="inline" d="M61.233,1.5H3.531c-1.114,0-2.028,0.914-2.028,2.03v73.441C1.501,78.086,2.415,79,3.531,79h57.703
		c1.116,0,2.029-0.914,2.029-2.029V3.53C63.263,2.414,62.35,1.5,61.233,1.5z M31.75,55.281c-5.438,0-9.35-3.143-9.889-8.221h6.248
		v0.043c0.358,2.199,1.752,3.146,3.687,3.146c2.604,0,5.213-2.204,5.256-8.897l-0.089-0.093c-1.438,2.157-3.908,2.696-6.066,2.696
		c-6.109,0-9.661-4.626-9.661-9.974c0-7.821,4.628-11.46,10.875-11.46c11.057,0,11.231,11.909,11.231,16.404
		C43.343,51.281,37.502,55.281,31.75,55.281z"/>
</g>
<g display="none">
	<path display="inline" d="M44.873,27.557c-3.598,0-4.584,3.1-4.584,11.326c0,8.223,0.986,11.369,4.584,11.369
		c3.597,0,4.585-3.146,4.585-11.369C49.458,30.657,48.469,27.557,44.873,27.557z"/>
	<path display="inline" d="M61.233,1.5H3.531c-1.114,0-2.028,0.914-2.028,2.03v73.441C1.501,78.086,2.415,79,3.531,79h57.703
		c1.116,0,2.029-0.914,2.029-2.029V3.53C63.263,2.414,62.35,1.5,61.233,1.5z M24.382,54.43h-6.291V32.453h-7.594v-4.4h0.896
		c6.066,0,7.687-3.147,7.818-5.53h5.167L24.382,54.43L24.382,54.43z M44.873,55.281c-7.504,0-11.056-5.213-11.056-16.399
		c0-11.191,3.552-16.36,11.056-16.36c7.505,0,11.056,5.169,11.056,16.36C55.928,50.068,52.378,55.281,44.873,55.281z"/>
</g>
<path display="none" d="M61.233,1.5H3.53C2.415,1.5,1.5,2.414,1.5,3.53v73.441C1.5,78.086,2.415,79,3.53,79h57.703
	c1.115,0,2.029-0.914,2.029-2.029V3.53C63.263,2.414,62.349,1.5,61.233,1.5z M24.382,54.43h-6.291V32.453h-7.594v-4.4h0.896
	c6.066,0,7.687-3.147,7.818-5.53h5.167L24.382,54.43L24.382,54.43z M49.366,54.43h-6.291V32.453H35.48v-4.4h0.897
	c6.065,0,7.685-3.147,7.817-5.53h5.169L49.366,54.43L49.366,54.43z"/>
<path d="M62.989,0H1.774C0.796,0,0,0.793,0,1.769v76.963C0,79.707,0.796,80.5,1.774,80.5h61.215c0.979,0,1.774-0.793,1.774-1.769
	l0.001-76.963C64.764,0.793,63.967,0,62.989,0z M63.263,78.731c0,0.146-0.126,0.269-0.274,0.269H1.774
	C1.625,79,1.5,78.877,1.5,78.731V1.769C1.5,1.623,1.625,1.5,1.774,1.5h61.215c0.149,0,0.275,0.123,0.275,0.269L63.263,78.731z"/>
</svg>
